X:1
T:Since mercy is the grace
T:Since mercy is the grace - Hooper (Samuel Wakely)
C:Samuel Wakely
Z:p11, The Village Harmony,
Z:London: [1846]
%%score [ 1 2 3 4 ]
L:1/8
M:2/4
K:A
V:1 treble nm="Air" snm="S."
V:2 treble nm="[Alto]" snm="A."
V:3 treble-8 transpose=-12 nm="Tenor" snm="T."
V:4 bass nm="[Bass]" snm="B."
V:1
"^Moderato" A2 cA | (dB) (cd) | !fermata!e3!p! A | A(G/A/) Bc | A z z c | c(B/c/) de | %6
w: His qui- et|soul _ with _|peace Shall|be for- * ev- er|blest, shall|be for- * ev- er|
w: Since mer- cy|is _ the _|grace That|most ex- * alts thy|fame, that|most ex- * alts thy|
w: Who- e’er with|hum- * ble _|fear To|God his _ du- ty|pays, to|God his _ du- ty|
 !fermata!c2"^Chorus"!f! E2 | A2 (c>A) | F2 (dc) | B2 (cd) | e(d/e/) fe | d(c/d/) ed | c(B/c/) dc | %13
w: blest, And|by his _|num- ’rous _|race the _|land Suc- * ces- sive-|ly pos- * sess’d, suc-|ces- sive- * ly pos-|
w: fame, For-|give my _|hei- nous _|sin, O _|Lord, And _ so ad-|vance thy _ name, and|so ad- * vance thy|
w: pays, Shall|find the _|Lord a _|faith- ful _|guide In _ all his|right- eous _ ways, in|all his _ right- eous|
 (Bc/^d/ !fermata!e)!ff!c | d3 B | A2 G2 | A4 |] %17
w: sess’d, _ _ _ suc-|ces- sive-|ly pos-|sess’d.|
w: name, _ _ _ and|so ad-|vance thy|name.|
w: ways, _ _ _ in|all his|right- eous|ways.|
V:2
 E2 EF | (FE) E2 | (A2 !fermata!G) z | z4 | z4 | z4 | z2!f! E2 | E2 E2 | D2 F2 | E2 (AG) | A3 z | %11
w: His qui- et|soul _ with|peace _||||And|by his|num- ’rous|race the _|land|
w: Since mer- cy|is _ the|grace _||||For-|give my|hei- nous|sin, O _|Lord,|
w: Who- e’er with|hum- * ble|fear _||||Shall|find the|Lord a|faith- ful _|guide|
 z4 | z4 | z2 !fermata!z"^["!ff!"^]" E | F3 F | E2 D2 | C4 |] %17
w: ||Suc-|ces- sive-|ly pos-|sess’d.|
w: ||And|so ad-|vance thy|name.|
w: ||In|all his|right- eous|ways.|
V:3
 c2 cd | (BG) (AB) | (cA !fermata!B) z | z4 | z2 z!p! A | A(G/A/) Bc | !fermata!A2!f! B2 | c2 c2 | %8
w: His qui- et|soul _ with _|peace _ _||Shall|be for- * ev- er|blest, And|by his|
w: Since mer- cy|is _ the _|grace _ _||That|most ex- * alts thy|fame, For-|give my|
w: Who- e’er with|hum- * ble _|fear _ _||To|God his _ du- ty|pays, Shall|find the|
 A2 (BA) | G2 (AB) | c(B/c/) dc | B(A/B/) cB | A(G/A/) BA | !fermata!G3!ff! A | A3 d | c2 B2 | %16
w: num- ’rous _|race the _|land Suc- * ces- sive-|ly pos- * sess’d, suc-|ces- sive- * ly pos-|sess’d, suc-|ces- sive-|ly pos-|
w: hei- nous _|sin, O _|Lord, And _ so ad-|vance thy _ name, and|so ad- * vance thy|name, and|so ad-|vance thy|
w: Lord a _|faith- ful _|guide In _ all his|right- eous _ ways, in|all his _ right- eous|ways, in|all his|right- eous|
 A4 |] %17
w: sess’d.|
w: name.|
w: ways.|
V:4
 A,2 A,"^6"F, |"^6" (D,E,)"^6" (C,"^643"B,,) | (A,,C, !fermata!E,) z | z2 z!p! A, | %4
w: His qui- et|soul _ with _|peace _ _|Shall|
w: Since mer- cy|is _ the _|grace _ _|That|
w: Who- e’er with|hum- * ble _|fear _ _|To|
 A,(G,/A,/) B,"^6"C | A, z z A,, | !fermata!A,,2!f! E,2 |"^6" C,2 A,,2 | D,2 B,,2 | %9
w: be for- * ev- er|blest, e’er|blest, And|by his|num- ’rous|
w: most ex- * alts thy|fame, thy|fame, For-|give my|hei- nous|
w: God his _ du- ty|pays, [see|notes] Shall|find the|Lord a|
 (E,D,)"^6" (C,"^643"B,,) |"^42""^53""^64""^53" A,,4- | %11
w: race _ the _|land|
w: sin, _ O _|Lord,|
w: faith- * ful _|guide|
"^Notes:The original order of staves is not specified in the source, but appears to be Tenor - Alto - Soprano (air) - Bass, and hasbeen treated as such here: the tenor and alto parts are given in the source in the treble clef, an octave above soundingpitch, and the air and bass are bracketed together, with the bass figured for keyboard accompaniment.Only the first verse of the text is given in the source: the last word of the second line of text is printed in the source as‘name’, and has been emended here to the more usual ‘fame’. Three subsequent verses of text have been addededitorially. In the absence of a suitable two syllables for the basses to sing on the last quaver of bar 6 and the first crotchetof bar 7 in the second verse, these notes should not be sung by the basses in this verse, but if instruments are used todouble the bass voices then these notes should be played (as in the other verses).""^42" A,,3"^7" E, | %12
w: _ Suc-|
w: _ And|
w: _ In|
 A,(B,/A,/)"^65" G,A, | !fermata!E,3"^["!ff!"^]" A, | D,3"^6" D, |"^64" E,2"^753" E,2 | A,,4 |] %17
w: ces- sive- * ly pos-|sess’d, suc-|ces- sive-|ly pos-|sess’d.|
w: so ad- * vance thy|name, and|so ad-|vance thy|name.|
w: all his _ right- eous|ways, in|all his|right- eous|ways.|

